X:89
T:Master of Ceremonies. JJo8.089, The
B:J.Johnson Choice Collection Vol 8 1758
Z:vmp.Simon Wilson 2013 www.village-music-project.org.uk
M:C|
L:1/8
Q:1/2=80
K:G
g2fed2cB|cAdAB2AG|e2cAd2BG|cAGFG2G,2:|
|:A2FDc3A|BdBG cecA|BdBG gdcB|cAGFG2G,2:|
|:B2Bd ^cedc|defg afed|g2gb afed|ged^c{c}d4:|
|:gdcB ecBA|dBAG AFED|c2ce dBAG|cAGF{F}G4:|

